X: 37892
T: Souter Creek
R: reel
M: 4/4
K: Dmajor
DE|:FAGE DA,DE|F2ED B,EED|FAGE DDde|fedA FBBA|
FAGE DA,DE|F2ED B,Ede|fedA G2 FA|1 G2FD A,DDE:|2 G2FD A,DDB,
|:A,DFA G2 FD|B,DGA GFD2|A,DFA B,DGA|EAAG F2 ED|
A,DFA G2FD|B,DGA GFde|fedAG2FA|1 G2FD A,DDB,:|2 G2FD A,DD2||

